report_00007_2020-12-11T15:55:29.892Z/network-server-latency/comparison/line/12_vs_13.svg

<svg width="640" height="500" xmlns="http://www.w3.org/2000/svg" xmlns:xlink="http://www.w3.org/1999/xlink"><path fill="#fff" d="M0 0h640v500H0z"/><defs><path id="d" stroke-width=".222" stroke="currentColor" d="M-1-1h2v2h-2z"/><path id="b" stroke-width=".222" stroke="currentColor" d="M0-1.33l-1.33 2h2.66z"/><path id="f" stroke-width=".222" stroke="currentColor" d="M0 1.33L1.265.411.782-1.067l-1.564-.009-.483 1.487z"/><use xlink:href="#b" id="c" stroke="currentColor" transform="rotate(180)"/><use xlink:href="#d" id="e" stroke="currentColor" transform="rotate(45)"/><circle id="a" stroke-width=".222" stroke="currentColor" cx="0" cy="0" r="1"/></defs><g fill="none" color="#000" stroke="currentColor"><path stroke="#000" d="M53.9 360.1h9m552.1 0h-9"/><text transform="translate(45.6 364)" stroke="none" fill="#000" font-family="Arial" font-size="12" text-anchor="end"><tspan>3.5</tspan></text></g><g fill="none" color="#000" stroke="currentColor"><path stroke="#000" d="M53.9 283.5h9m552.1 0h-9"/><text transform="translate(45.6 287.4)" stroke="none" fill="#000" font-family="Arial" font-size="12" text-anchor="end"><tspan>4</tspan></text></g><g fill="none" color="#000" stroke="currentColor"><path stroke="#000" d="M53.9 206.9h9m552.1 0h-9"/><text transform="translate(45.6 210.8)" stroke="none" fill="#000" font-family="Arial" font-size="12" text-anchor="end"><tspan>4.5</tspan></text></g><g fill="none" color="#000" stroke="currentColor"><path stroke="#000" d="M53.9 130.3h9m552.1 0h-9"/><text transform="translate(45.6 134.2)" stroke="none" fill="#000" font-family="Arial" font-size="12" text-anchor="end"><tspan>5</tspan></text></g><g fill="none" color="#000" stroke="currentColor"><path stroke="#000" d="M53.9 53.7h9m552.1 0h-9"/><text transform="translate(45.6 57.6)" stroke="none" fill="#000" font-family="Arial" font-size="12" text-anchor="end"><tspan>5.5</tspan></text></g><g fill="none" color="#000" stroke="currentColor"><path stroke="#000" d="M53.9 428v-9m0-400.9v9"/><text transform="translate(53.9 449.9)" stroke="none" fill="#000" font-family="Arial" font-size="12" text-anchor="middle"><tspan>0</tspan></text></g><g fill="none" color="#000" stroke="currentColor"><path stroke="#000" d="M110.6 428v-9m0-400.9v9"/><text transform="translate(110.6 449.9)" stroke="none" fill="#000" font-family="Arial" font-size="12" text-anchor="middle"><tspan>10</tspan></text></g><g fill="none" color="#000" stroke="currentColor"><path stroke="#000" d="M167.3 428v-9m0-400.9v9"/><text transform="translate(167.3 449.9)" stroke="none" fill="#000" font-family="Arial" font-size="12" text-anchor="middle"><tspan>20</tspan></text></g><g fill="none" color="#000" stroke="currentColor"><path stroke="#000" d="M223.9 428v-9m0-400.9v9"/><text transform="translate(223.9 449.9)" stroke="none" fill="#000" font-family="Arial" font-size="12" text-anchor="middle"><tspan>30</tspan></text></g><g fill="none" color="#000" stroke="currentColor"><path stroke="#000" d="M280.6 428v-9m0-400.9v9"/><text transform="translate(280.6 449.9)" stroke="none" fill="#000" font-family="Arial" font-size="12" text-anchor="middle"><tspan>40</tspan></text></g><g fill="none" color="#000" stroke="currentColor"><path stroke="#000" d="M337.3 428v-9m0-400.9v9"/><text transform="translate(337.3 449.9)" stroke="none" fill="#000" font-family="Arial" font-size="12" text-anchor="middle"><tspan>50</tspan></text></g><g fill="none" color="#000" stroke="currentColor"><path stroke="#000" d="M394 428v-9m0-400.9v9"/><text transform="translate(394 449.9)" stroke="none" fill="#000" font-family="Arial" font-size="12" text-anchor="middle"><tspan>60</tspan></text></g><g fill="none" color="#000" stroke="currentColor"><path stroke="#000" d="M450.6 428v-9m0-400.9v9"/><text transform="translate(450.6 449.9)" stroke="none" fill="#000" font-family="Arial" font-size="12" text-anchor="middle"><tspan>70</tspan></text></g><g fill="none" color="#000" stroke="currentColor"><path stroke="#000" d="M507.3 428v-9m0-400.9v9"/><text transform="translate(507.3 449.9)" stroke="none" fill="#000" font-family="Arial" font-size="12" text-anchor="middle"><tspan>80</tspan></text></g><g fill="none" color="#000" stroke="currentColor"><path stroke="#000" d="M564 428v-9m0-400.9v9"/><text transform="translate(564 449.9)" stroke="none" fill="#000" font-family="Arial" font-size="12" text-anchor="middle"><tspan>90</tspan></text></g><path stroke="#000" d="M53.9 18.1V428H615V18.1H53.9z" fill="none" color="#000"/><text transform="translate(529.1 467.9)" stroke="none" fill="#000" font-family="Arial" font-size="12" text-anchor="end" color="#000"><tspan>pages+cached+noexternal+nofonts+nosvg+noimg+nocss</tspan></text><path stroke="#9400D3" d="M537.4 464h42.2M53.9 291l5.7-39.5L65.2 133l5.7 39.3 5.7 104.3 5.6 68.7 5.7-169.4 5.7 58.8 5.6 121.2 5.7-31.6 5.7-87.3 5.6 73.2 5.7-163 5.7 197.2 5.6-9.9 5.7-100.5 5.7-86.2 5.7-78.6 5.6 117.2 5.7 11.7 5.7-118.3 5.6 227.2 5.7-38.8 5.7-28.7 5.6 160.5 5.7-76.3 5.7-184 5.6 78.1 5.7 141.9 5.7-40.7 5.6-1.8 5.7-94.8 5.7 10.2 5.6 134 5.7-98.8 5.7 57.9 5.6-73.6 5.7 26 5.7-160.7 5.6 183.8 5.7-51 5.7 71.2 5.6-38.5L297.6 86l5.7 235.2 5.6-15.6 5.7-46.9 5.7 20.9 5.6-65.8 5.7 88.2 5.7-62.1 5.7 81.7 5.6 19.6 5.7-62.2 5.7 1.1 5.6 62.3 5.7-117.9 5.7-7.2 5.6 40.5 5.7 21.2 5.7-87.7 5.6 136.7 5.7-55.3 5.7 147.4 5.6-142.6 5.7 45.7 5.7-71.1 5.6 103.1 5.7-94.8 5.7 36.2 5.6 25.1 5.7-95.6 5.7 13.2 5.6 73.8 5.7-196.6L479 236l5.6 56.6 5.7 3.8 5.7 89 5.6-165.2 5.7 46.7L513 232l5.6-41.7 5.7 75.8 5.7 30.7 5.7-11.9 5.6 53.3 5.7-62.7 5.7 16.2 5.6-42.7 5.7-80.3 5.7 150.7 5.6-39.7 5.7 82 5.7-140.2 5.6 89.8 5.7-155.4 5.7-6.4 5.6 82.6L615 89.8" fill="none" color="#000"/><text transform="translate(529.1 485.9)" stroke="none" fill="#000" font-family="Arial" font-size="12" text-anchor="end" color="#000"><tspan>pages+cached+noexternal+nofonts+nosvg+noimg+nocss+nojs</tspan></text><path stroke="#009E73" d="M537.4 482h42.2M53.9 99l5.7 181.7 5.6-77.7 5.7 136.2 5.7-190.8L82.2 302l5.7-144.4 5.7 110.8 5.6-132.6 5.7 24.4 5.7 3.5 5.6-64.9 5.7 232 5.7-151.1 5.6-11.2 5.7-34.3 5.7 26.9 5.7-30.5 5.6 54.7 5.7 1.9L167.3 26l5.6 182.7 5.7-29.3 5.7-.8 5.6-52.2 5.7 31.7L201.3 50l5.6 95.5 5.7 47 5.7-97.9 5.6-14.5 5.7 198 5.7-144.9 5.6 11.8 5.7 84.7 5.7-102.6 5.6 122.2 5.7-118.9 5.7 21.2 5.6 103.1 5.7 37.6 5.7-182.8 5.6 111.7 5.7 1.6 5.7 143.8 5.6-216.6 5.7-9.1 5.7-99.5 5.6 9.2 5.7 101.7 5.7 66.7 5.7-8.5 5.6-84.2 5.7 94.4 5.7-112.3 5.6 96.6 5.7-104.1 5.7-14.8 5.6 40.4 5.7-9.9 5.7 65.8 5.6-9 5.7-21.9 5.7-4.5 5.6 103.4 5.7 10.5 5.7-142.8 5.6 18.6 5.7 46.2 5.7 130.9 5.6-157.1 5.7 61.3 5.7-115.7 5.6 13.5 5.7 96.4 5.7-29.3 5.6-98.4 5.7 97.5 5.7-7.7 5.6-18.6 5.7 57.2L513 89.5l5.6 234.3 5.7-229.9L530 230l5.7-97 5.6 50.1 5.7 43.5L552.7 79l5.6 128.7 5.7-61.6 5.7 36.6 5.6-99.7 5.7 68.1 5.7 164 5.6-75.2 5.7-42.1 5.7-36.4 5.6-46.5 5.7 200.5" fill="none" color="#000"/><g fill="none" color="#000" stroke="currentColor"><path stroke="#000" d="M53.9 18.1V428H615V18.1H53.9z"/></g></svg>

<?xml version="1.0" encoding="utf-8"  standalone="no"?>
<svg 
 width="640" height="500"
 viewBox="0 0 640 500"
 xmlns="http://www.w3.org/2000/svg"
 xmlns:xlink="http://www.w3.org/1999/xlink"
>

<title>Gnuplot</title>
<desc>Produced by GNUPLOT 5.4 patchlevel 0 </desc>

<g id="gnuplot_canvas">

<rect x="0" y="0" width="640" height="500" fill="#ffffff"/>
<defs>

	<circle id='gpDot' r='0.5' stroke-width='0.5' stroke='currentColor'/>
	<path id='gpPt0' stroke-width='0.222' stroke='currentColor' d='M-1,0 h2 M0,-1 v2'/>
	<path id='gpPt1' stroke-width='0.222' stroke='currentColor' d='M-1,-1 L1,1 M1,-1 L-1,1'/>
	<path id='gpPt2' stroke-width='0.222' stroke='currentColor' d='M-1,0 L1,0 M0,-1 L0,1 M-1,-1 L1,1 M-1,1 L1,-1'/>
	<rect id='gpPt3' stroke-width='0.222' stroke='currentColor' x='-1' y='-1' width='2' height='2'/>
	<rect id='gpPt4' stroke-width='0.222' stroke='currentColor' fill='currentColor' x='-1' y='-1' width='2' height='2'/>
	<circle id='gpPt5' stroke-width='0.222' stroke='currentColor' cx='0' cy='0' r='1'/>
	<use xlink:href='#gpPt5' id='gpPt6' fill='currentColor' stroke='none'/>
	<path id='gpPt7' stroke-width='0.222' stroke='currentColor' d='M0,-1.33 L-1.33,0.67 L1.33,0.67 z'/>
	<use xlink:href='#gpPt7' id='gpPt8' fill='currentColor' stroke='none'/>
	<use xlink:href='#gpPt7' id='gpPt9' stroke='currentColor' transform='rotate(180)'/>
	<use xlink:href='#gpPt9' id='gpPt10' fill='currentColor' stroke='none'/>
	<use xlink:href='#gpPt3' id='gpPt11' stroke='currentColor' transform='rotate(45)'/>
	<use xlink:href='#gpPt11' id='gpPt12' fill='currentColor' stroke='none'/>
	<path id='gpPt13' stroke-width='0.222' stroke='currentColor' d='M0,1.330 L1.265,0.411 L0.782,-1.067 L-0.782,-1.076 L-1.265,0.411 z'/>
	<use xlink:href='#gpPt13' id='gpPt14' fill='currentColor' stroke='none'/>
	<filter id='textbox' filterUnits='objectBoundingBox' x='0' y='0' height='1' width='1'>
	  <feFlood flood-color='#FFFFFF' flood-opacity='1' result='bgnd'/>
	  <feComposite in='SourceGraphic' in2='bgnd' operator='atop'/>
	</filter>
	<filter id='greybox' filterUnits='objectBoundingBox' x='0' y='0' height='1' width='1'>
	  <feFlood flood-color='lightgrey' flood-opacity='1' result='grey'/>
	  <feComposite in='SourceGraphic' in2='grey' operator='atop'/>
	</filter>
</defs>
<g fill="none" color="#FFFFFF" stroke="black" stroke-width="1.00" stroke-linecap="butt" stroke-linejoin="miter">
</g>
<g fill="none" color="black" stroke="currentColor" stroke-width="1.00" stroke-linecap="butt" stroke-linejoin="miter">
	<path stroke='black'  d='M53.9,360.1 L62.9,360.1 M615.0,360.1 L606.0,360.1  '/>	<g transform="translate(45.6,364.0)" stroke="none" fill="black" font-family="Arial" font-size="12.00"  text-anchor="end">
		<text><tspan font-family="Arial" > 3.5</tspan></text>
	</g>
</g>
<g fill="none" color="black" stroke="currentColor" stroke-width="1.00" stroke-linecap="butt" stroke-linejoin="miter">
	<path stroke='black'  d='M53.9,283.5 L62.9,283.5 M615.0,283.5 L606.0,283.5  '/>	<g transform="translate(45.6,287.4)" stroke="none" fill="black" font-family="Arial" font-size="12.00"  text-anchor="end">
		<text><tspan font-family="Arial" > 4</tspan></text>
	</g>
</g>
<g fill="none" color="black" stroke="currentColor" stroke-width="1.00" stroke-linecap="butt" stroke-linejoin="miter">
	<path stroke='black'  d='M53.9,206.9 L62.9,206.9 M615.0,206.9 L606.0,206.9  '/>	<g transform="translate(45.6,210.8)" stroke="none" fill="black" font-family="Arial" font-size="12.00"  text-anchor="end">
		<text><tspan font-family="Arial" > 4.5</tspan></text>
	</g>
</g>
<g fill="none" color="black" stroke="currentColor" stroke-width="1.00" stroke-linecap="butt" stroke-linejoin="miter">
	<path stroke='black'  d='M53.9,130.3 L62.9,130.3 M615.0,130.3 L606.0,130.3  '/>	<g transform="translate(45.6,134.2)" stroke="none" fill="black" font-family="Arial" font-size="12.00"  text-anchor="end">
		<text><tspan font-family="Arial" > 5</tspan></text>
	</g>
</g>
<g fill="none" color="black" stroke="currentColor" stroke-width="1.00" stroke-linecap="butt" stroke-linejoin="miter">
	<path stroke='black'  d='M53.9,53.7 L62.9,53.7 M615.0,53.7 L606.0,53.7  '/>	<g transform="translate(45.6,57.6)" stroke="none" fill="black" font-family="Arial" font-size="12.00"  text-anchor="end">
		<text><tspan font-family="Arial" > 5.5</tspan></text>
	</g>
</g>
<g fill="none" color="black" stroke="currentColor" stroke-width="1.00" stroke-linecap="butt" stroke-linejoin="miter">
	<path stroke='black'  d='M53.9,428.0 L53.9,419.0 M53.9,18.1 L53.9,27.1  '/>	<g transform="translate(53.9,449.9)" stroke="none" fill="black" font-family="Arial" font-size="12.00"  text-anchor="middle">
		<text><tspan font-family="Arial" > 0</tspan></text>
	</g>
</g>
<g fill="none" color="black" stroke="currentColor" stroke-width="1.00" stroke-linecap="butt" stroke-linejoin="miter">
	<path stroke='black'  d='M110.6,428.0 L110.6,419.0 M110.6,18.1 L110.6,27.1  '/>	<g transform="translate(110.6,449.9)" stroke="none" fill="black" font-family="Arial" font-size="12.00"  text-anchor="middle">
		<text><tspan font-family="Arial" > 10</tspan></text>
	</g>
</g>
<g fill="none" color="black" stroke="currentColor" stroke-width="1.00" stroke-linecap="butt" stroke-linejoin="miter">
	<path stroke='black'  d='M167.3,428.0 L167.3,419.0 M167.3,18.1 L167.3,27.1  '/>	<g transform="translate(167.3,449.9)" stroke="none" fill="black" font-family="Arial" font-size="12.00"  text-anchor="middle">
		<text><tspan font-family="Arial" > 20</tspan></text>
	</g>
</g>
<g fill="none" color="black" stroke="currentColor" stroke-width="1.00" stroke-linecap="butt" stroke-linejoin="miter">
	<path stroke='black'  d='M223.9,428.0 L223.9,419.0 M223.9,18.1 L223.9,27.1  '/>	<g transform="translate(223.9,449.9)" stroke="none" fill="black" font-family="Arial" font-size="12.00"  text-anchor="middle">
		<text><tspan font-family="Arial" > 30</tspan></text>
	</g>
</g>
<g fill="none" color="black" stroke="currentColor" stroke-width="1.00" stroke-linecap="butt" stroke-linejoin="miter">
	<path stroke='black'  d='M280.6,428.0 L280.6,419.0 M280.6,18.1 L280.6,27.1  '/>	<g transform="translate(280.6,449.9)" stroke="none" fill="black" font-family="Arial" font-size="12.00"  text-anchor="middle">
		<text><tspan font-family="Arial" > 40</tspan></text>
	</g>
</g>
<g fill="none" color="black" stroke="currentColor" stroke-width="1.00" stroke-linecap="butt" stroke-linejoin="miter">
	<path stroke='black'  d='M337.3,428.0 L337.3,419.0 M337.3,18.1 L337.3,27.1  '/>	<g transform="translate(337.3,449.9)" stroke="none" fill="black" font-family="Arial" font-size="12.00"  text-anchor="middle">
		<text><tspan font-family="Arial" > 50</tspan></text>
	</g>
</g>
<g fill="none" color="black" stroke="currentColor" stroke-width="1.00" stroke-linecap="butt" stroke-linejoin="miter">
	<path stroke='black'  d='M394.0,428.0 L394.0,419.0 M394.0,18.1 L394.0,27.1  '/>	<g transform="translate(394.0,449.9)" stroke="none" fill="black" font-family="Arial" font-size="12.00"  text-anchor="middle">
		<text><tspan font-family="Arial" > 60</tspan></text>
	</g>
</g>
<g fill="none" color="black" stroke="currentColor" stroke-width="1.00" stroke-linecap="butt" stroke-linejoin="miter">
	<path stroke='black'  d='M450.6,428.0 L450.6,419.0 M450.6,18.1 L450.6,27.1  '/>	<g transform="translate(450.6,449.9)" stroke="none" fill="black" font-family="Arial" font-size="12.00"  text-anchor="middle">
		<text><tspan font-family="Arial" > 70</tspan></text>
	</g>
</g>
<g fill="none" color="black" stroke="currentColor" stroke-width="1.00" stroke-linecap="butt" stroke-linejoin="miter">
	<path stroke='black'  d='M507.3,428.0 L507.3,419.0 M507.3,18.1 L507.3,27.1  '/>	<g transform="translate(507.3,449.9)" stroke="none" fill="black" font-family="Arial" font-size="12.00"  text-anchor="middle">
		<text><tspan font-family="Arial" > 80</tspan></text>
	</g>
</g>
<g fill="none" color="black" stroke="currentColor" stroke-width="1.00" stroke-linecap="butt" stroke-linejoin="miter">
	<path stroke='black'  d='M564.0,428.0 L564.0,419.0 M564.0,18.1 L564.0,27.1  '/>	<g transform="translate(564.0,449.9)" stroke="none" fill="black" font-family="Arial" font-size="12.00"  text-anchor="middle">
		<text><tspan font-family="Arial" > 90</tspan></text>
	</g>
</g>
<g fill="none" color="black" stroke="currentColor" stroke-width="1.00" stroke-linecap="butt" stroke-linejoin="miter">
</g>
<g fill="none" color="black" stroke="currentColor" stroke-width="1.00" stroke-linecap="butt" stroke-linejoin="miter">
	<path stroke='black'  d='M53.9,18.1 L53.9,428.0 L615.0,428.0 L615.0,18.1 L53.9,18.1 Z  '/></g>
<g fill="none" color="black" stroke="currentColor" stroke-width="1.00" stroke-linecap="butt" stroke-linejoin="miter">
</g>
	<g id="gnuplot_plot_1" ><title>pages+cached+noexternal+nofonts+nosvg+noimg+nocss</title>
<g fill="none" color="black" stroke="currentColor" stroke-width="1.00" stroke-linecap="butt" stroke-linejoin="miter">
	<g transform="translate(529.1,467.9)" stroke="none" fill="black" font-family="Arial" font-size="12.00"  text-anchor="end">
		<text><tspan font-family="Arial" >pages+cached+noexternal+nofonts+nosvg+noimg+nocss</tspan></text>
	</g>
</g>
<g fill="none" color="black" stroke="currentColor" stroke-width="1.00" stroke-linecap="butt" stroke-linejoin="miter">
	<path stroke='rgb(148,   0, 211)'  d='M537.4,464.0 L579.6,464.0 M53.9,291.0 L59.6,251.5 L65.2,133.0 L70.9,172.3 L76.6,276.6 L82.2,345.3
		L87.9,175.9 L93.6,234.7 L99.2,355.9 L104.9,324.3 L110.6,237.0 L116.2,310.2 L121.9,147.2 L127.6,344.4
		L133.2,334.5 L138.9,234.0 L144.6,147.8 L150.3,69.2 L155.9,186.4 L161.6,198.1 L167.3,79.8 L172.9,307.0
		L178.6,268.2 L184.3,239.5 L189.9,400.0 L195.6,323.7 L201.3,139.7 L206.9,217.8 L212.6,359.7 L218.3,319.0
		L223.9,317.2 L229.6,222.4 L235.3,232.6 L240.9,366.6 L246.6,267.8 L252.3,325.7 L257.9,252.1 L263.6,278.1
		L269.3,117.4 L274.9,301.2 L280.6,250.2 L286.3,321.4 L291.9,282.9 L297.6,86.0 L303.3,321.2 L308.9,305.6
		L314.6,258.7 L320.3,279.6 L325.9,213.8 L331.6,302.0 L337.3,239.9 L343.0,321.6 L348.6,341.2 L354.3,279.0
		L360.0,280.1 L365.6,342.4 L371.3,224.5 L377.0,217.3 L382.6,257.8 L388.3,279.0 L394.0,191.3 L399.6,328.0
		L405.3,272.7 L411.0,420.1 L416.6,277.5 L422.3,323.2 L428.0,252.1 L433.6,355.2 L439.3,260.4 L445.0,296.6
		L450.6,321.7 L456.3,226.1 L462.0,239.3 L467.6,313.1 L473.3,116.5 L479.0,236.0 L484.6,292.6 L490.3,296.4
		L496.0,385.4 L501.6,220.2 L507.3,266.9 L513.0,232.0 L518.6,190.3 L524.3,266.1 L530.0,296.8 L535.7,284.9
		L541.3,338.2 L547.0,275.5 L552.7,291.7 L558.3,249.0 L564.0,168.7 L569.7,319.4 L575.3,279.7 L581.0,361.7
		L586.7,221.5 L592.3,311.3 L598.0,155.9 L603.7,149.5 L609.3,232.1 L615.0,89.8  '/></g>
	</g>
	<g id="gnuplot_plot_2" ><title>pages+cached+noexternal+nofonts+nosvg+noimg+nocss+nojs</title>
<g fill="none" color="black" stroke="currentColor" stroke-width="1.00" stroke-linecap="butt" stroke-linejoin="miter">
	<g transform="translate(529.1,485.9)" stroke="none" fill="black" font-family="Arial" font-size="12.00"  text-anchor="end">
		<text><tspan font-family="Arial" >pages+cached+noexternal+nofonts+nosvg+noimg+nocss+nojs</tspan></text>
	</g>
</g>
<g fill="none" color="black" stroke="currentColor" stroke-width="1.00" stroke-linecap="butt" stroke-linejoin="miter">
	<path stroke='rgb(  0, 158, 115)'  d='M537.4,482.0 L579.6,482.0 M53.9,99.0 L59.6,280.7 L65.2,203.0 L70.9,339.2 L76.6,148.4 L82.2,302.0
		L87.9,157.6 L93.6,268.4 L99.2,135.8 L104.9,160.2 L110.6,163.7 L116.2,98.8 L121.9,330.8 L127.6,179.7
		L133.2,168.5 L138.9,134.2 L144.6,161.1 L150.3,130.6 L155.9,185.3 L161.6,187.2 L167.3,26.0 L172.9,208.7
		L178.6,179.4 L184.3,178.6 L189.9,126.4 L195.6,158.1 L201.3,50.0 L206.9,145.5 L212.6,192.5 L218.3,94.6
		L223.9,80.1 L229.6,278.1 L235.3,133.2 L240.9,145.0 L246.6,229.7 L252.3,127.1 L257.9,249.3 L263.6,130.4
		L269.3,151.6 L274.9,254.7 L280.6,292.3 L286.3,109.5 L291.9,221.2 L297.6,222.8 L303.3,366.6 L308.9,150.0
		L314.6,140.9 L320.3,41.4 L325.9,50.6 L331.6,152.3 L337.3,219.0 L343.0,210.5 L348.6,126.3 L354.3,220.7
		L360.0,108.4 L365.6,205.0 L371.3,100.9 L377.0,86.1 L382.6,126.5 L388.3,116.6 L394.0,182.4 L399.6,173.4
		L405.3,151.5 L411.0,147.0 L416.6,250.4 L422.3,260.9 L428.0,118.1 L433.6,136.7 L439.3,182.9 L445.0,313.8
		L450.6,156.7 L456.3,218.0 L462.0,102.3 L467.6,115.8 L473.3,212.2 L479.0,182.9 L484.6,84.5 L490.3,182.0
		L496.0,174.3 L501.6,155.7 L507.3,212.9 L513.0,89.5 L518.6,323.8 L524.3,93.9 L530.0,230.0 L535.7,133.0
		L541.3,183.1 L547.0,226.6 L552.7,79.0 L558.3,207.7 L564.0,146.1 L569.7,182.7 L575.3,83.0 L581.0,151.1
		L586.7,315.1 L592.3,239.9 L598.0,197.8 L603.7,161.4 L609.3,114.9 L615.0,315.4  '/></g>
	</g>
<g fill="none" color="#FFFFFF" stroke="rgb(  0, 158, 115)" stroke-width="2.00" stroke-linecap="butt" stroke-linejoin="miter">
</g>
<g fill="none" color="black" stroke="currentColor" stroke-width="2.00" stroke-linecap="butt" stroke-linejoin="miter">
</g>
<g fill="none" color="black" stroke="black" stroke-width="1.00" stroke-linecap="butt" stroke-linejoin="miter">
</g>
<g fill="none" color="black" stroke="currentColor" stroke-width="1.00" stroke-linecap="butt" stroke-linejoin="miter">
	<path stroke='black'  d='M53.9,18.1 L53.9,428.0 L615.0,428.0 L615.0,18.1 L53.9,18.1 Z  '/></g>
<g fill="none" color="black" stroke="currentColor" stroke-width="1.00" stroke-linecap="butt" stroke-linejoin="miter">
</g>
</g>
</svg>
